X: 4915
T: Branohm
R: reel
M: 4/4
K: Adorian
eA ~A2 cdec|d2gd BAGB|AE~E2 ABcd|egfa geag|
eA ~A2 cdec|d2gd BAGB|AE~E2 cdec|d2gd BAA2:|
e3f geaf|gedc Bcdg|eaag a3 g|aged ^cdef|
geaf g2ef|gedc BAGB|AE~E2 cdec|d2gd BAA2:|

